Gawaita/scalable/devices/drive-harddisk.svg

<?xml version="1.0" encoding="UTF-8"?>
<svg height="128px" viewBox="0 0 128 128" width="128px" xmlns="http://www.w3.org/2000/svg" xmlns:xlink="http://www.w3.org/1999/xlink">
    <linearGradient id="a" gradientTransform="matrix(0.25 0 0 0.243056 -16 -80.435722)" gradientUnits="userSpaceOnUse" x1="176" x2="494.999939" y1="799.963867" y2="799.963867">
        <stop offset="0"/>
        <stop offset="0.0470219" stop-color="#424048"/>
        <stop offset="0.0971787" stop-color="#241f31"/>
        <stop offset="0.899687" stop-color="#241f31"/>
        <stop offset="0.949843" stop-color="#424048"/>
        <stop offset="1"/>
    </linearGradient>
    <linearGradient id="b" gradientTransform="matrix(0.25 0 0 0.243056 -16 -80.435722)" gradientUnits="userSpaceOnUse" x1="177" x2="496" y1="619.963867" y2="619.963867">
        <stop offset="0" stop-color="#424048"/>
        <stop offset="0.0470219" stop-color="#f6f5f4"/>
        <stop offset="0.0971787" stop-color="#949390"/>
        <stop offset="0.899687" stop-color="#d5d3cf"/>
        <stop offset="0.949843" stop-color="#f6f5f4"/>
        <stop offset="1" stop-color="#424048"/>
    </linearGradient>
    <linearGradient id="c" gradientUnits="userSpaceOnUse" x1="68.00000775" x2="68.00000775" y1="2.249954" y2="106.249954">
        <stop offset="0" stop-color="#deddda"/>
        <stop offset="1" stop-color="#f6f5f4"/>
    </linearGradient>
    <radialGradient id="d" cx="112.042053" cy="132.151825" gradientTransform="matrix(0.573927 -0.480654 0.340622 0.406722 -24.35643 101.866379)" gradientUnits="userSpaceOnUse" r="144">
        <stop offset="0" stop-color="#d5d3cf"/>
        <stop offset="0.129392" stop-color="#949390"/>
        <stop offset="0.257694" stop-color="#d5d3cf"/>
        <stop offset="0.334113" stop-color="#deddda"/>
        <stop offset="0.446104" stop-color="#949390"/>
        <stop offset="0.51534" stop-color="#deddda"/>
        <stop offset="0.657589" stop-color="#f6f5f4"/>
        <stop offset="0.809046" stop-color="#949390"/>
        <stop offset="1" stop-color="#ffffff"/>
    </radialGradient>
    <linearGradient id="e" gradientUnits="userSpaceOnUse" x1="71.73707575" x2="58.4499625" y1="55.1854875" y2="32.17152775">
        <stop offset="0" stop-color="#dfddd9"/>
        <stop offset="1" stop-color="#f9f9f8"/>
    </linearGradient>
    <linearGradient id="f" gradientUnits="userSpaceOnUse">
        <stop offset="0" stop-opacity="0.25098"/>
        <stop offset="1" stop-opacity="0.031373"/>
    </linearGradient>
    <radialGradient id="g" cx="35.99999" cy="104.8950995" r="4" xlink:href="#f"/>
    <linearGradient id="h" gradientUnits="userSpaceOnUse">
        <stop offset="0" stop-color="#949390"/>
        <stop offset="1" stop-color="#424048"/>
    </linearGradient>
    <radialGradient id="i" cx="28.1048890128" cy="105.27128512586" r="2.077984" xlink:href="#h"/>
    <radialGradient id="j" cx="99.999989" cy="104.8950995" r="4" xlink:href="#f"/>
    <radialGradient id="k" cx="100.00003990404" cy="104.93936984209" r="2.751304" xlink:href="#h"/>
    <radialGradient id="l" cx="99.999989" cy="14.8950995" r="4" xlink:href="#f"/>
    <radialGradient id="m" cx="100.00003990404" cy="14.93936984209" r="2.751304" xlink:href="#h"/>
    <radialGradient id="n" cx="27.99999" cy="14.8950995" r="4" xlink:href="#f"/>
    <radialGradient id="o" cx="28.00004190404" cy="14.93936984209" r="2.751304" xlink:href="#h"/>
    <path d="m 28 50 h 72 c 4.433594 0 8 3.566406 8 8 v 54 c 0 4.433594 -3.566406 8 -8 8 h -72 c -4.433594 0 -8 -3.566406 -8 -8 v -54 c 0 -4.433594 3.566406 -8 8 -8 z m 0 0" fill="url(#a)"/>
    <path d="m 28 44 h 72 c 4.433594 0 8 3.566406 8 8 v 54 c 0 4.433594 -3.566406 8 -8 8 h -72 c -4.433594 0 -8 -3.566406 -8 -8 v -54 c 0 -4.433594 3.566406 -8 8 -8 z m 0 0" fill="url(#b)"/>
    <path d="m 28 8 h 72 c 4.433594 0 8 3.773438 8 8.457031 v 87.085938 c 0 4.683593 -3.566406 8.457031 -8 8.457031 h -72 c -4.433594 0 -8 -3.773438 -8 -8.457031 v -87.085938 c 0 -4.683593 3.566406 -8.457031 8 -8.457031 z m 0 0" fill="url(#c)"/>
    <path d="m 38 12 c -2.214844 0 -4 1.785156 -4 4 c 0 3.3125 -2.6875 6 -6 6 c -2.214844 0 -4 1.785156 -4 4 v 8 c 0 2.214844 1.785156 4 4 4 c 3.3125 0 6 2.6875 6 6 c -0.003906 1.476562 -0.550781 2.902344 -1.539062 4 c -5.921876 6.59375 -8.445313 15.136719 -8.460938 24 c 0 19.882812 20.117188 36 40 36 s 40 -16.117188 40 -36 c -0.015625 -8.863281 -2.539062 -17.410156 -8.464844 -24 c -0.984375 -1.097656 -1.53125 -2.523438 -1.535156 -4 c 0 -3.3125 2.6875 -6 6 -6 c 2.214844 0 4 -1.785156 4 -4 v -8 c 0 -2.214844 -1.785156 -4 -4 -4 c -3.3125 0 -6 -2.6875 -6 -6 c 0 -2.214844 -1.785156 -4 -4 -4 z m 26 52 c 3.3125 0 6 2.6875 6 6 s -2.6875 6 -6 6 s -6 -2.6875 -6 -6 s 2.6875 -6 6 -6 z m 0 0" fill="url(#d)"/>
    <path d="m 38 10 c -2.214844 0 -4 1.785156 -4 4 c 0 3.3125 -2.6875 6 -6 6 c -2.214844 0 -4 1.785156 -4 4 v 8 c 0 2.214844 1.785156 4 4 4 c 3.3125 0 6 2.6875 6 6 c -0.003906 1.476562 -0.550781 2.902344 -1.539062 4 c -5.921876 6.59375 -8.445313 15.136719 -8.460938 24 c 0 19.882812 20.117188 36 40 36 s 40 -16.117188 40 -36 c -0.015625 -8.863281 -2.539062 -17.410156 -8.464844 -24 c -0.984375 -1.097656 -1.53125 -2.523438 -1.535156 -4 c 0 -3.3125 2.6875 -6 6 -6 c 2.214844 0 4 -1.785156 4 -4 v -8 c 0 -2.214844 -1.785156 -4 -4 -4 c -3.3125 0 -6 -2.6875 -6 -6 c 0 -2.214844 -1.785156 -4 -4 -4 z m 26 52 c 3.3125 0 6 2.6875 6 6 s -2.6875 6 -6 6 s -6 -2.6875 -6 -6 s 2.6875 -6 6 -6 z m 0 0" fill="url(#e)"/>
    <path d="m 32 106 c 0 2.210938 -1.789062 4 -4 4 s -4 -1.789062 -4 -4 s 1.789062 -4 4 -4 s 4 1.789062 4 4 z m 0 0" fill="url(#g)"/>
    <path d="m 30 106 c 0 1.105469 -0.894531 2 -2 2 s -2 -0.894531 -2 -2 s 0.894531 -2 2 -2 s 2 0.894531 2 2 z m 0 0" fill="url(#i)"/>
    <path d="m 104 106 c 0 2.210938 -1.789062 4 -4 4 s -4 -1.789062 -4 -4 s 1.789062 -4 4 -4 s 4 1.789062 4 4 z m 0 0" fill="url(#j)"/>
    <path d="m 102 106 c 0 1.105469 -0.894531 2 -2 2 s -2 -0.894531 -2 -2 s 0.894531 -2 2 -2 s 2 0.894531 2 2 z m 0 0" fill="url(#k)"/>
    <path d="m 104 16 c 0 2.210938 -1.789062 4 -4 4 s -4 -1.789062 -4 -4 s 1.789062 -4 4 -4 s 4 1.789062 4 4 z m 0 0" fill="url(#l)"/>
    <path d="m 102 16 c 0 1.105469 -0.894531 2 -2 2 s -2 -0.894531 -2 -2 s 0.894531 -2 2 -2 s 2 0.894531 2 2 z m 0 0" fill="url(#m)"/>
    <path d="m 32 16 c 0 2.210938 -1.789062 4 -4 4 s -4 -1.789062 -4 -4 s 1.789062 -4 4 -4 s 4 1.789062 4 4 z m 0 0" fill="url(#n)"/>
    <path d="m 30 16 c 0 1.105469 -0.894531 2 -2 2 s -2 -0.894531 -2 -2 s 0.894531 -2 2 -2 s 2 0.894531 2 2 z m 0 0" fill="url(#o)"/>
</svg>

<svg width="128" height="128" viewBox="0 0 128 128" fill="none" xmlns="http://www.w3.org/2000/svg">
<path d="M28 50H100C104.434 50 108 53.5664 108 58V112C108 116.434 104.434 120 100 120H28C23.5664 120 20 116.434 20 112V58C20 53.5664 23.5664 50 28 50Z" fill="url(#paint0_linear_1_3234)"/>
<path d="M28 44H100C104.434 44 108 47.5664 108 52V106C108 110.434 104.434 114 100 114H28C23.5664 114 20 110.434 20 106V52C20 47.5664 23.5664 44 28 44Z" fill="url(#paint1_linear_1_3234)"/>
<path d="M28 8H100C104.434 8 108 11.7734 108 16.457V103.543C108 108.227 104.434 112 100 112H28C23.5664 112 20 108.227 20 103.543V16.457C20 11.7734 23.5664 8 28 8Z" fill="url(#paint2_linear_1_3234)"/>
<path d="M38 12C35.7852 12 34 13.7852 34 16C34 19.3125 31.3125 22 28 22C25.7852 22 24 23.7852 24 26V34C24 36.2148 25.7852 38 28 38C31.3125 38 34 40.6875 34 44C33.9961 45.4766 33.4492 46.9023 32.4609 48C26.5391 54.5938 24.0156 63.1367 24 72C24 91.8828 44.1172 108 64 108C83.8828 108 104 91.8828 104 72C103.984 63.1367 101.461 54.5898 95.5352 48C94.5508 46.9023 94.0039 45.4766 94 44C94 40.6875 96.6875 38 100 38C102.215 38 104 36.2148 104 34V26C104 23.7852 102.215 22 100 22C96.6875 22 94 19.3125 94 16C94 13.7852 92.2148 12 90 12H38ZM64 64C67.3125 64 70 66.6875 70 70C70 73.3125 67.3125 76 64 76C60.6875 76 58 73.3125 58 70C58 66.6875 60.6875 64 64 64Z" fill="url(#paint3_radial_1_3234)"/>
<path d="M38 10C35.7852 10 34 11.7852 34 14C34 17.3125 31.3125 20 28 20C25.7852 20 24 21.7852 24 24V32C24 34.2148 25.7852 36 28 36C31.3125 36 34 38.6875 34 42C33.9961 43.4766 33.4492 44.9023 32.4609 46C26.5391 52.5938 24.0156 61.1367 24 70C24 89.8828 44.1172 106 64 106C83.8828 106 104 89.8828 104 70C103.984 61.1367 101.461 52.5898 95.5352 46C94.5508 44.9023 94.0039 43.4766 94 42C94 38.6875 96.6875 36 100 36C102.215 36 104 34.2148 104 32V24C104 21.7852 102.215 20 100 20C96.6875 20 94 17.3125 94 14C94 11.7852 92.2148 10 90 10H38ZM64 62C67.3125 62 70 64.6875 70 68C70 71.3125 67.3125 74 64 74C60.6875 74 58 71.3125 58 68C58 64.6875 60.6875 62 64 62Z" fill="url(#paint4_linear_1_3234)"/>
<path d="M32 106C32 108.211 30.2109 110 28 110C25.7891 110 24 108.211 24 106C24 103.789 25.7891 102 28 102C30.2109 102 32 103.789 32 106Z" fill="url(#paint5_radial_1_3234)"/>
<path d="M30 106C30 107.105 29.1055 108 28 108C26.8945 108 26 107.105 26 106C26 104.895 26.8945 104 28 104C29.1055 104 30 104.895 30 106Z" fill="url(#paint6_radial_1_3234)"/>
<path d="M104 106C104 108.211 102.211 110 100 110C97.7891 110 96 108.211 96 106C96 103.789 97.7891 102 100 102C102.211 102 104 103.789 104 106Z" fill="url(#paint7_radial_1_3234)"/>
<path d="M102 106C102 107.105 101.105 108 100 108C98.8945 108 98 107.105 98 106C98 104.895 98.8945 104 100 104C101.105 104 102 104.895 102 106Z" fill="url(#paint8_radial_1_3234)"/>
<path d="M104 16C104 18.2109 102.211 20 100 20C97.7891 20 96 18.2109 96 16C96 13.7891 97.7891 12 100 12C102.211 12 104 13.7891 104 16Z" fill="url(#paint9_radial_1_3234)"/>
<path d="M102 16C102 17.1055 101.105 18 100 18C98.8945 18 98 17.1055 98 16C98 14.8945 98.8945 14 100 14C101.105 14 102 14.8945 102 16Z" fill="url(#paint10_radial_1_3234)"/>
<path d="M32 16C32 18.2109 30.2109 20 28 20C25.7891 20 24 18.2109 24 16C24 13.7891 25.7891 12 28 12C30.2109 12 32 13.7891 32 16Z" fill="url(#paint11_radial_1_3234)"/>
<path d="M30 16C30 17.1055 29.1055 18 28 18C26.8945 18 26 17.1055 26 16C26 14.8945 26.8945 14 28 14C29.1055 14 30 14.8945 30 16Z" fill="url(#paint12_radial_1_3234)"/>
<rect x="20" y="8" width="88" height="106" rx="8" fill="url(#paint13_linear_1_3234)" fill-opacity="0.68" style="mix-blend-mode:luminosity"/>
<defs>
<linearGradient id="paint0_linear_1_3234" x1="28" y1="114" x2="107.75" y2="114" gradientUnits="userSpaceOnUse">
<stop/>
<stop offset="0.0470219" stop-color="#424048"/>
<stop offset="0.0971787" stop-color="#241F31"/>
<stop offset="0.899687" stop-color="#241F31"/>
<stop offset="0.949843" stop-color="#424048"/>
<stop offset="1"/>
</linearGradient>
<linearGradient id="paint1_linear_1_3234" x1="28.25" y1="70.2502" x2="108" y2="70.2502" gradientUnits="userSpaceOnUse">
<stop stop-color="#424048"/>
<stop offset="0.0470219" stop-color="#F6F5F4"/>
<stop offset="0.0971787" stop-color="#949390"/>
<stop offset="0.899687" stop-color="#D5D3CF"/>
<stop offset="0.949843" stop-color="#F6F5F4"/>
<stop offset="1" stop-color="#424048"/>
</linearGradient>
<linearGradient id="paint2_linear_1_3234" x1="68" y1="2.24995" x2="68" y2="106.25" gradientUnits="userSpaceOnUse">
<stop stop-color="#DEDDDA"/>
<stop offset="1" stop-color="#F6F5F4"/>
</linearGradient>
<radialGradient id="paint3_radial_1_3234" cx="0" cy="0" r="1" gradientUnits="userSpaceOnUse" gradientTransform="translate(84.9614 101.762) rotate(-39.9456) scale(107.8 76.3942)">
<stop stop-color="#D5D3CF"/>
<stop offset="0.129392" stop-color="#949390"/>
<stop offset="0.257694" stop-color="#D5D3CF"/>
<stop offset="0.334113" stop-color="#DEDDDA"/>
<stop offset="0.446104" stop-color="#949390"/>
<stop offset="0.51534" stop-color="#DEDDDA"/>
<stop offset="0.657589" stop-color="#F6F5F4"/>
<stop offset="0.809046" stop-color="#949390"/>
<stop offset="1" stop-color="white"/>
</radialGradient>
<linearGradient id="paint4_linear_1_3234" x1="71.7371" y1="55.1855" x2="58.45" y2="32.1715" gradientUnits="userSpaceOnUse">
<stop stop-color="#DFDDD9"/>
<stop offset="1" stop-color="#F9F9F8"/>
</linearGradient>
<radialGradient id="paint5_radial_1_3234" cx="0" cy="0" r="1" gradientUnits="userSpaceOnUse" gradientTransform="translate(36 104.895) scale(4)">
<stop stop-opacity="0.25098"/>
<stop offset="1" stop-opacity="0.031373"/>
</radialGradient>
<radialGradient id="paint6_radial_1_3234" cx="0" cy="0" r="1" gradientUnits="userSpaceOnUse" gradientTransform="translate(28.1049 105.271) scale(2.07798)">
<stop stop-color="#949390"/>
<stop offset="1" stop-color="#424048"/>
</radialGradient>
<radialGradient id="paint7_radial_1_3234" cx="0" cy="0" r="1" gradientUnits="userSpaceOnUse" gradientTransform="translate(100 104.895) scale(4)">
<stop stop-opacity="0.25098"/>
<stop offset="1" stop-opacity="0.031373"/>
</radialGradient>
<radialGradient id="paint8_radial_1_3234" cx="0" cy="0" r="1" gradientUnits="userSpaceOnUse" gradientTransform="translate(100 104.939) scale(2.7513)">
<stop stop-color="#949390"/>
<stop offset="1" stop-color="#424048"/>
</radialGradient>
<radialGradient id="paint9_radial_1_3234" cx="0" cy="0" r="1" gradientUnits="userSpaceOnUse" gradientTransform="translate(100 14.8951) scale(4)">
<stop stop-opacity="0.25098"/>
<stop offset="1" stop-opacity="0.031373"/>
</radialGradient>
<radialGradient id="paint10_radial_1_3234" cx="0" cy="0" r="1" gradientUnits="userSpaceOnUse" gradientTransform="translate(100 14.9394) scale(2.7513)">
<stop stop-color="#949390"/>
<stop offset="1" stop-color="#424048"/>
</radialGradient>
<radialGradient id="paint11_radial_1_3234" cx="0" cy="0" r="1" gradientUnits="userSpaceOnUse" gradientTransform="translate(28 14.8951) scale(4)">
<stop stop-opacity="0.25098"/>
<stop offset="1" stop-opacity="0.031373"/>
</radialGradient>
<radialGradient id="paint12_radial_1_3234" cx="0" cy="0" r="1" gradientUnits="userSpaceOnUse" gradientTransform="translate(28 14.9394) scale(2.7513)">
<stop stop-color="#949390"/>
<stop offset="1" stop-color="#424048"/>
</radialGradient>
<linearGradient id="paint13_linear_1_3234" x1="21.4831" y1="10.8393" x2="101.568" y2="115.057" gradientUnits="userSpaceOnUse">
<stop stop-color="white" stop-opacity="0.545"/>
<stop offset="0.153846" stop-color="white"/>
<stop offset="0.302885" stop-color="white" stop-opacity="0.3175"/>
<stop offset="0.586538" stop-color="white" stop-opacity="0.09"/>
<stop offset="0.745192" stop-color="white"/>
<stop offset="0.860577" stop-color="white" stop-opacity="0"/>
</linearGradient>
</defs>
</svg>
